X:1
T:Reapers Are Needed (Gabriel)
T:Reapers Are Needed (Gabriel)
T:Charles Hutchinson Gabriel, 1902
T:Public Domain Courtesy of the Cyber Hymnal™
T:Public Domain Courtesy of the Cyber Hymnal™
T:Public Domain Courtesy of the Cyber Hymnal™
C:Charles Hutchinson Gabriel, 1902
Z:Public Domain
Z:Courtesy of the Cyber Hymnal™
%%score ( 1 2 ) ( 3 4 )
L:1/8
Q:1/4=95
M:4/4
K:Eb
V:1 treble 
V:2 treble 
V:3 bass 
V:4 bass 
V:1
 [B,E][B,E][B,E][B,E] [B,E]>[B,F] [EG][FA] | [GB][GB][Gc][EG] [GB]4 | %2
w: 1.~Stand- ing in the mar- ket plac- es|all the sea- son through,|
w: 2.~Ev- ’ry sheaf you ga- ther will be-|come a jew- el bright|
w: 3.~Morn- ing hours are pass- ing, and the|ev- ening fol- lows fast;|
 [FA][B,A][DA][EA] [FA]>[EG] [DF][FA] | [EG][EG][E=A][EA] [DB]4 | %4
w: Id- ly say- ing, “Lord, is there no|work that I can do?”|
w: In the crown you hope to wear in|yon- der world of light.|
w: Soon the time of reap- ing will for-|ev- er- more be past.|
 [B,E][B,E][B,E][B,E] [B,E]>[B,F] [EG][FA] | [GB][GB][Gc][EG] [GB]4 | %6
w: O how ma- ny loi- ter, while the|Mas- ter calls a- new—|
w: Seek the gems im- mor- tal that are|pre- cious in His sight!|
w: Emp- ty hand- ed to the Mas- ter|will you go at last?|
 [GB] ([GB]2 =A/G/) [GB] ([GB]2 A/G/) | [^Fd]>[=E^c] [Fd]>([Ec] [Fd] [Dd]/[Dd]/[Dd][Dd]) || %8
w: “Reap- ers! * * reap- ers! * *|Who will work- today?” * * * * *|
w: “Reap- ers! * * reap- ers! * *|Who will work- today?” * * * * *|
w: “Reap- ers! * * reap- ers! * *|Who will work- today?” * * * * *|
"^Refrain" e2 e2 edcd | [EG]>[E^F] [EG]>[EF] G4 | e2 e2 edcd | [FA]>[=EG] [FA]>[EG] A4 | %12
w: Lift thine eyes and look up-|on the fields that stand|Ripe and rea- dy for the|will- ing glean- er’s hand,|
w: ||||
w: Lift~thine eyes~and look ~ up- ~|on the fields that stand~all~ready,|Ripe~and ready for ~ the ~|will- ing glean- er’s hand,~O~rouse~ye,|
 [Af] [Af]2 [G=e] [Af][Ad][Ac][GB] | [Ge] [Ge]2 [Fd] [Ge][GB][EG][GB] | %14
w: Rouse ye, O sleep- ers! Ye are|need- ed as reap- ers! Who will|
w: ||
w: ~ ~ ~ ~ ~ ~ ~|~ ~ ~ ~ ~ ~ ~|
 [F=A][FB][Fc][Fd] [Fe][Fc][Fd][Ae] | [Af]2 [Af]2 [Af]4 | e2 e2 edcd | [EG]>[E^F] [EG]>[EF] G4 | %18
w: be the first to an- swer, “Mas- ter,|here am I.”|Far and wide the rip- ened|grain is bend- ing low,|
w: ||||
w: ~ ~ ~ ~ ~ ~ quick- ly,|“Master, here~am I.”~O~answer!|Far~and wide~the rip- ~- ened ~|grain is ben- ding low,~In~breezes,|
 e2 e2 edcd | [FA]>[=EG] [FA]>[EG] A4 | [Af] [Af]2 [G=e] [Af][Ad][Ac][AB] | %21
w: In the breez- es gent- ly|wav- ing to and fro,|Rouse ye, O sleep- ers! Ye are|
w: |||
w: In~the breezes gent- ~- ly ~|wav- ing to and fro~O~rouse~ye,||
 [Ge] [Ge]2 [Fd] [Ge][GB][EG][GB] | [Ac]>[A=B] [Ac][Ad] [^Fe][Fe][Fd][Fc] | [GB]2 [Ad]2 [Ge]4 |] %24
w: need- ed as reap- ers! And the|gold- en har- vest days are swift- ly|pass- ing by.|
w: |||
w: |||
V:2
 x8 | x8 | x8 | x8 | x8 | x8 | x8 | x8 || (GG) (GG) G2 G2 | x4 (EEEE) | (GG) (GG) G2 G2 | %11
 x4 (FFFF) | x8 | x8 | x8 | x8 | (GG) (GG) G2 G2 | x4 (EEEE) | (GG) (GG) G2 G2 | x4 (FFFF) | x8 | %21
 x8 | x8 | x8 |] %24
V:3
 [E,G,][E,G,][E,G,][E,G,] [E,G,]>[E,B,] [E,B,][E,B,] | [E,E][E,E][E,E][E,B,] [E,E]4 | %2
 [B,,D][B,,D][B,,B,][B,,B,] [B,,B,]>[B,,B,] [B,,B,][D,B,] | [E,B,][C,C][F,C][F,C] (z A,G,F,) | %4
 [E,G,][E,G,][E,G,][E,G,] [E,G,]>[E,A,] [E,B,][E,B,] | [E,E][E,E][E,E][E,B,] [E,E]4 | %6
 [E,B,] [D,B,]2 z [^C,B,] [C,B,]2 z | [D,=A,]>[D,A,] [D,A,]3/2 ([D,A,]/[D,A,]B,,=A,,F,,) || %8
 (B,B,) (B,B,) [E,B,]2 [B,,B,]2 | (B,>=A,) (B,>A,) (B,B,) (B,B,) | (B,B,) (B,B,) [E,B,]2 [B,,B,]2 | %11
 (B,>B,) (B,>B,) (B,B,) (B,B,) | [B,D] [B,D]2 [B,^C] [B,D][B,,B,][^C,B,][D,B,] | %13
 [E,B,] [E,B,]2 [E,B,] [E,B,][E,E][E,B,][E,E] | [F,E][F,D][F,C][F,B,] [F,=A,][E,A,][D,B,][C,C] | %15
 [B,,D][=B,,_D][C,C][^C,_C] _B,4 | (B,B,) (B,B,) [E,B,]2 [B,,B,]2 | %17
 (B,>=A,) (B,>A,) (B,B,) (B,B,) | (B,B,) (B,B,) [E,B,]2 [B,,B,]2 | (B,>B,) (B,>B,) (B,B,) (B,B,) | %20
 [B,D] [B,D]2 [B,^C] [B,D][B,,B,][^C,B,][D,B,] | [E,B,] [E,B,]2 [E,B,] [E,B,][E,E][E,B,][E,E] | %22
 [A,E]>[A,D] [A,E][A,D] [=A,C][A,C][A,C][A,E] | [B,E]2 [B,,B,]2 [E,B,]4 |] %24
V:4
 x8 | x8 | x8 | x4 [B,,B,]4 | x8 | x8 | x8 | x8 || E,2 B,,2 x4 | E,2 B,,2 E,2 B,,2 | E,2 B,,2 x4 | %11
 D,2 B,,2 D,2 B,,2 | x8 | x8 | x8 | x4 _D,_B,,=C,D, | E,2 B,,2 x4 | E,2 B,,2 E,2 B,,2 | %18
 E,2 B,,2 x4 | D,2 B,,2 D,2 B,,2 | x8 | x8 | x8 | x8 |] %24

